svgs/sharp-regular/send-backward.svg

<svg xmlns="http://www.w3.org/2000/svg" viewBox="0 0 512 512"><!--! Font Awesome Pro 6.6.0 by @fontawesome - https://fontawesome.com License - https://fontawesome.com/license (Commercial License) Copyright 2024 Fonticons, Inc. --><path d="M352 0L0 0 0 352l128 0 0-192 0-32 32 0 192 0L352 0zM208 208l256 0 0 256-256 0 0-256zm-48-48l0 48 0 256 0 48 48 0 256 0 48 0 0-48 0-256 0-48-48 0-256 0-48 0z"/></svg>

<svg xmlns="http://www.w3.org/2000/svg" viewBox="0 0 512 512"><!--! Font Awesome Pro 6.4.0 by @fontawesome - https://fontawesome.com License - https://fontawesome.com/license (Commercial License) Copyright 2023 Fonticons, Inc. --><path d="M352 0H0V352H128V160 128h32H352V0zM208 208H464V464H208V208zm-48-48v48V464v48h48H464h48V464 208 160H464 208 160z"/></svg>
